images/logo-icon-faded.svg

<svg height="75" viewBox="0 0 78 75" width="78" xmlns="http://www.w3.org/2000/svg"><path d="m63.5742168 100.955694c1.5771036-3.0862122 4.7865419-5.1990337 8.4892831-5.1990337 5.262292 0 9.5282225 4.2674257 9.5282225 9.5315617s-4.2659305 9.531562-9.5282225 9.531562c-3.7027412 0-6.9121795-2.112822-8.4892831-5.199034h-8.8347577c-8.1326331 0-14.7254348-6.595112-14.7254348-14.7305953 0-8.1354832 6.5928017-14.7305954 14.7254348-14.7305954h20.7582159l-3.5055762-5.1990337h-17.2526397c-8.1326331 0-14.7254348-6.5951122-14.7254348-14.7305954 0-8.1354831 6.5928017-14.7305953 14.7254348-14.7305953 4.7155931 0 8.662299 1.8213797 11.5238372 5.5612233.1866331.2439174.903725 1.2845631 2.5931092 3.7540648l7.7408874 11.4808465h26.6494811c3.348731 0 6.063414-2.7156344 6.063414-6.0655393 0-3.3499048-2.714683-6.0655392-6.063414-6.0655392h-8.8347582c-1.5771036 3.0862121-4.7865418 5.1990336-8.4892831 5.1990336-5.262292 0-9.5282225-4.2674255-9.5282225-9.5315617s4.2659305-9.5315617 9.5282225-9.5315617c3.7027413 0 6.9121795 2.1128215 8.4892831 5.1990337h8.8347582c8.132633 0 14.725434 6.5951122 14.725434 14.7305953 0 8.1354832-6.592801 14.7305954-14.725434 14.7305954h-20.8071225l3.5054152 5.1990337h17.3017073c8.132633 0 14.725434 6.5951122 14.725434 14.7305954 0 8.1354833-6.592801 14.7305953-14.725434 14.7305953-4.5017474 0-8.6780769-2.039045-11.619773-5.691322l-2.14253-3.026397-8.1441689-12.0784156h-26.600843c-3.3487313 0-6.0634143 2.7156345-6.0634143 6.0655393s2.714683 6.0655393 6.0634143 6.0655393zm33.0344752-4.9804486 1.9194061 2.7245712c1.1480037 1.4198784 2.8602789 2.2558774 4.7186759 2.2558774 3.348731 0 6.063414-2.7156345 6.063414-6.0655393s-2.714683-6.0655393-6.063414-6.0655393h-11.4593486zm-34.9169674-36.2909507c-1.3624245-1.9914187-2.2731584-3.3130783-2.3068102-3.3570589-1.1682567-1.5268352-2.5464113-2.1628448-4.6454553-2.1628448-3.3487313 0-6.0634143 2.7156344-6.0634143 6.0655392 0 3.3499049 2.714683 6.0655393 6.0634143 6.0655393h11.4100126z" fill="#a5a7b8" transform="translate(-40 -40)"/></svg>

<?xml version="1.0" encoding="UTF-8"?>
<svg width="78px" height="75px" viewBox="0 0 78 75" version="1.1" xmlns="http://www.w3.org/2000/svg" xmlns:xlink="http://www.w3.org/1999/xlink">
    <!-- Generator: Sketch 52.6 (67491) - http://www.bohemiancoding.com/sketch -->
    <title>Fission Icon</title>
    <desc>Created with Sketch.</desc>
    <g id="Page-1" stroke="none" stroke-width="1" fill="none" fill-rule="evenodd">
        <g id="Logos-Source" transform="translate(-408.000000, -689.000000)" fill="#A5A7B8" fill-rule="nonzero">
            <g id="Alternates" transform="translate(64.000000, 442.000000)">
                <g id="Gradient-Reversal" transform="translate(304.000000, 207.000000)">
                    <path d="M63.5742168,100.955694 C65.1513204,97.8694818 68.3607587,95.7566603 72.0634999,95.7566603 C77.3257919,95.7566603 81.5917224,100.024086 81.5917224,105.288222 C81.5917224,110.552358 77.3257919,114.819784 72.0634999,114.819784 C68.3607587,114.819784 65.1513204,112.706962 63.5742168,109.62075 L54.7394591,109.62075 C46.606826,109.62075 40.0140243,103.025638 40.0140243,94.8901547 C40.0140243,86.7546715 46.606826,80.1595593 54.7394591,80.1595593 L75.497675,80.1595593 L71.9920988,74.9605256 L54.7394591,74.9605256 C46.606826,74.9605256 40.0140243,68.3654134 40.0140243,60.2299302 C40.0140243,52.0944471 46.606826,45.4993349 54.7394591,45.4993349 C59.4550522,45.4993349 63.4017581,47.3207146 66.2632963,51.0605582 C66.4499294,51.3044756 67.1670213,52.3451213 68.8564055,54.814623 L76.5972929,66.2954695 L103.246774,66.2954695 C106.595505,66.2954695 109.310188,63.5798351 109.310188,60.2299302 C109.310188,56.8800254 106.595505,54.164391 103.246774,54.164391 L94.4120158,54.164391 C92.8349122,57.2506031 89.625474,59.3634246 85.9227327,59.3634246 C80.6604407,59.3634246 76.3945102,55.0959991 76.3945102,49.8318629 C76.3945102,44.5677267 80.6604407,40.3003012 85.9227327,40.3003012 C89.625474,40.3003012 92.8349122,42.4131227 94.4120158,45.4993349 L103.246774,45.4993349 C111.379407,45.4993349 117.972208,52.0944471 117.972208,60.2299302 C117.972208,68.3654134 111.379407,74.9605256 103.246774,74.9605256 L82.4396515,74.9605256 L85.9450667,80.1595593 L103.246774,80.1595593 C111.379407,80.1595593 117.972208,86.7546715 117.972208,94.8901547 C117.972208,103.025638 111.379407,109.62075 103.246774,109.62075 C98.7450266,109.62075 94.5686971,107.581705 91.627001,103.929428 L89.484471,100.903031 L81.3403021,88.8246154 L54.7394591,88.8246154 C51.3907278,88.8246154 48.6760448,91.5402499 48.6760448,94.8901547 C48.6760448,98.2400595 51.3907278,100.955694 54.7394591,100.955694 L63.5742168,100.955694 Z M96.608692,95.9752454 L98.5280981,98.6998166 C99.6761018,100.119695 101.388377,100.955694 103.246774,100.955694 C106.595505,100.955694 109.310188,98.2400595 109.310188,94.8901547 C109.310188,91.5402499 106.595505,88.8246154 103.246774,88.8246154 L91.7874254,88.8246154 L96.608692,95.9752454 Z M61.6917246,59.6842947 C60.3293001,57.692876 59.4185662,56.3712164 59.3849144,56.3272358 C58.2166577,54.8004006 56.8385031,54.164391 54.7394591,54.164391 C51.3907278,54.164391 48.6760448,56.8800254 48.6760448,60.2299302 C48.6760448,63.5798351 51.3907278,66.2954695 54.7394591,66.2954695 L66.1494717,66.2954695 L61.6917246,59.6842947 Z" id="Fission-Icon"></path>
                </g>
            </g>
        </g>
    </g>
</svg>
